X:465
T: Maid on the Green
S: Traditional Irish Music (K.Tweed)
Z: B.Black
L: 1/8
M: 6/8
R: jig
K: G
gfg e2 d|Bge dBA|BGG dBG|BA^G AB/c/d|
gfg e2 d|Bge dBA|BGG dBA|B/A/GF G3 :|
ge/f/g afd|ge/f/g abc'|bag agf|def g2 a|
bag agf|gfg e2 d|Bge dBA|B/c/GF G3 :|
